assets/github.svg

<svg fill="none" height="16" viewBox="0 0 16 16" width="16" xmlns="http://www.w3.org/2000/svg"><path d="m5.30566 12.4375c0-.0625-.0625-.125-.15625-.125s-.15625.0625-.15625.125.0625.125.15625.0937c.09375 0 .15625-.0312.15625-.0937zm-.96875-.1563c0 .0626.0625.1563.15625.1563.0625.0313.15625 0 .1875-.0625 0-.0625-.03125-.125-.125-.1562-.09375-.0313-.1875 0-.21875.0624zm1.40625-.0312c-.09375 0-.15625.0625-.15625.1562 0 .0626.09375.0938.1875.0626.09375-.0313.15625-.0626.125-.125 0-.0626-.09375-.125-.15625-.0938zm2.03125-12c-4.3125 0-7.624996 3.3125-7.624996 7.625 0 3.4688 2.156246 6.4375 5.281246 7.5.40625.0625.53125-.1875.53125-.375 0-.2188 0-1.2812 0-1.9375 0 0-2.1875.4687-2.65625-.9375 0 0-.34375-.9062-.84375-1.125 0 0-.71875-.5.03125-.5 0 0 .78125.0625 1.21875.8125.6875 1.2187 1.8125.875 2.28125.6563.0625-.5.25-.8438.5-1.0626-1.75-.1874-3.53125-.4374-3.53125-3.43745 0-.875.25-1.28125.75-1.84375-.09375-.21875-.34375-1.03125.09375-2.125.625-.1875 2.15625.84375 2.15625.84375.625-.1875 1.28125-.25 1.9375-.25.6875 0 1.34375.0625 1.96875.25 0 0 1.50004-1.0625 2.15624-.84375.4375 1.09375.1563 1.90625.0938 2.125.5.5625.8125.96875.8125 1.84375 0 3.00005-1.8438 3.25005-3.59379 3.43745.28125.25.53125.7188.53125 1.4688 0 1.0312-.03125 2.3438-.03125 2.5938 0 .2187.15625.4687.56249.375 3.125-1.0313 5.25-4 5.25-7.4688 0-4.3125-3.5312-7.625-7.87499-7.625zm-4.59375 10.7812c-.0625.0313-.03125.125 0 .1876.0625.0312.125.0624.1875.0312.03125-.0312.03125-.125-.03125-.1875-.0625-.0313-.125-.0625-.15625-.0313zm-.34375-.25c-.03125.0626 0 .0938.0625.125.0625.0313.125.0313.15625-.0312 0-.0312-.03125-.0625-.09375-.0938-.0625-.0312-.09375-.0312-.125 0zm1 1.125c-.03125.0313-.03125.125.0625.1876.0625.0624.15625.0937.1875.0312.03125-.0312.03125-.125-.03125-.1875s-.15625-.0937-.21875-.0313zm-.34375-.4687c-.0625.0313-.0625.125 0 .1875s.125.0938.1875.0625c.03125-.0313.03125-.125 0-.1875-.0625-.0625-.125-.0938-.1875-.0625z" fill="#000036"/></svg>

<svg width="16" height="16" viewBox="0 0 16 16" fill="none" xmlns="http://www.w3.org/2000/svg">
<path d="M5.30566 12.4375C5.30566 12.375 5.24316 12.3125 5.14941 12.3125C5.05566 12.3125 4.99316 12.375 4.99316 12.4375C4.99316 12.5 5.05566 12.5625 5.14941 12.5312C5.24316 12.5312 5.30566 12.5 5.30566 12.4375ZM4.33691 12.2812C4.33691 12.3438 4.39941 12.4375 4.49316 12.4375C4.55566 12.4688 4.64941 12.4375 4.68066 12.375C4.68066 12.3125 4.64941 12.25 4.55566 12.2188C4.46191 12.1875 4.36816 12.2188 4.33691 12.2812ZM5.74316 12.25C5.64941 12.25 5.58691 12.3125 5.58691 12.4062C5.58691 12.4688 5.68066 12.5 5.77441 12.4688C5.86816 12.4375 5.93066 12.4062 5.89941 12.3438C5.89941 12.2812 5.80566 12.2188 5.74316 12.25ZM7.77441 0.25C3.46191 0.25 0.149414 3.5625 0.149414 7.875C0.149414 11.3438 2.30566 14.3125 5.43066 15.375C5.83691 15.4375 5.96191 15.1875 5.96191 15C5.96191 14.7812 5.96191 13.7188 5.96191 13.0625C5.96191 13.0625 3.77441 13.5312 3.30566 12.125C3.30566 12.125 2.96191 11.2188 2.46191 11C2.46191 11 1.74316 10.5 2.49316 10.5C2.49316 10.5 3.27441 10.5625 3.71191 11.3125C4.39941 12.5312 5.52441 12.1875 5.99316 11.9688C6.05566 11.4688 6.24316 11.125 6.49316 10.9062C4.74316 10.7188 2.96191 10.4688 2.96191 7.46875C2.96191 6.59375 3.21191 6.1875 3.71191 5.625C3.61816 5.40625 3.36816 4.59375 3.80566 3.5C4.43066 3.3125 5.96191 4.34375 5.96191 4.34375C6.58691 4.15625 7.24316 4.09375 7.89941 4.09375C8.58691 4.09375 9.24316 4.15625 9.86816 4.34375C9.86816 4.34375 11.3682 3.28125 12.0244 3.5C12.4619 4.59375 12.1807 5.40625 12.1182 5.625C12.6182 6.1875 12.9307 6.59375 12.9307 7.46875C12.9307 10.4688 11.0869 10.7188 9.33691 10.9062C9.61816 11.1562 9.86816 11.625 9.86816 12.375C9.86816 13.4062 9.83691 14.7188 9.83691 14.9688C9.83691 15.1875 9.99316 15.4375 10.3994 15.3438C13.5244 14.3125 15.6494 11.3438 15.6494 7.875C15.6494 3.5625 12.1182 0.25 7.77441 0.25ZM3.18066 11.0312C3.11816 11.0625 3.14941 11.1562 3.18066 11.2188C3.24316 11.25 3.30566 11.2812 3.36816 11.25C3.39941 11.2188 3.39941 11.125 3.33691 11.0625C3.27441 11.0312 3.21191 11 3.18066 11.0312ZM2.83691 10.7812C2.80566 10.8438 2.83691 10.875 2.89941 10.9062C2.96191 10.9375 3.02441 10.9375 3.05566 10.875C3.05566 10.8438 3.02441 10.8125 2.96191 10.7812C2.89941 10.75 2.86816 10.75 2.83691 10.7812ZM3.83691 11.9062C3.80566 11.9375 3.80566 12.0312 3.89941 12.0938C3.96191 12.1562 4.05566 12.1875 4.08691 12.125C4.11816 12.0938 4.11816 12 4.05566 11.9375C3.99316 11.875 3.89941 11.8438 3.83691 11.9062ZM3.49316 11.4375C3.43066 11.4688 3.43066 11.5625 3.49316 11.625C3.55566 11.6875 3.61816 11.7188 3.68066 11.6875C3.71191 11.6562 3.71191 11.5625 3.68066 11.5C3.61816 11.4375 3.55566 11.4062 3.49316 11.4375Z" fill="#000036"/>
</svg>
